pieces/companion/rb.svg

<svg viewBox="0 0 64 64" xmlns="http://www.w3.org/2000/svg"><g transform="translate(0 -16)"><path d="m14.684 26.694c2.2974-.000525 4.5952-.000525 6.8937-.000118-.001 1.7234-.001 3.4467-.00081 5.1703 2.0104.000316 4.0214.00033 6.0333.000013-.001-1.7236-.001-3.447-.00087-5.1705 2.872.000158 5.7444.000144 8.6175.000052-.001 1.7235-.002 3.4468-.00095 5.1705 2.0103.000289 4.0214.000342 6.0335.000145-.001-1.7236-.002-3.447-.001-5.1704 2.2972-.000382 4.5951-.000382 6.894.000092-.001 3.173-.001 6.3458.0002 9.5189-1.4362 1.4817-2.8737 2.9615-4.3093 4.4428.006 6.2726-.0118 12.545.01 18.818 2.6161 2.3534 3.3796 5.9959 6.1495 8.1932.0393 2.1397.0377 4.2801.0393 6.421-12.695-.000291-25.39-.000876-38.085.000223-.00047-2.136.00013-4.2715.0277-6.4065 2.7129-2.4094 3.8005-6.0772 6.864-8.183.0122-6.2799.002-12.56.006-18.839-1.7241-1.4817-3.4486-2.9622-5.1711-4.4446.00059-3.1736-.00005-6.3469.00045-9.5203z" fill="#fff" stroke="#000" stroke-miterlimit="10" stroke-width=".086171"/><path d="m14.684 26.694c2.2974-.000525 4.5952-.000525 6.8937-.000118-.001 1.7234-.001 3.4467-.00081 5.1703 2.0104.000316 4.0214.00033 6.0333.000013-.001-1.7236-.001-3.447-.00087-5.1705 2.872.000158 5.7444.000144 8.6175.000052-.001 1.7235-.002 3.4468-.00095 5.1705 2.0103.000289 4.0214.000342 6.0335.000145-.001-1.7236-.002-3.447-.001-5.1704 2.2972-.000382 4.5951-.000382 6.894.000092-.001 3.173-.001 6.3458.0002 9.5189-1.4362 1.4817-2.8737 2.9615-4.3093 4.4428.006 6.2726-.0118 12.545.01 18.818 2.6161 2.3534 3.3796 5.9959 6.1495 8.1932.0393 2.1397.0377 4.2801.0393 6.421-12.695-.000291-25.39-.000876-38.085.000223-.00047-2.136.00013-4.2715.0277-6.4065 2.7129-2.4094 3.8005-6.0772 6.864-8.183.0122-6.2799.002-12.56.006-18.839-1.7241-1.4817-3.4486-2.9622-5.1711-4.4446.00059-3.1736-.00005-6.3469.00045-9.5203z"/><g fill="#fff"><path d="m21.578 38.757c7.1806-.00004 14.361-.000066 21.542.000012-.00095 1.436-.00095 2.872.00008 4.3085-7.1811.000054-14.362-.000131-21.543.000093-.001-1.4365-.001-2.8726.00008-4.3086z" stroke="#fff" stroke-miterlimit="10" stroke-width=".086171"/><path d="m21.578 38.757c7.1806-.00004 14.361-.000066 21.542.000012-.00095 1.436-.00095 2.872.00008 4.3085-7.1811.000054-14.362-.000131-21.543.000093-.001-1.4365-.001-2.8726.00008-4.3086z"/><path d="m21.578 58.577c7.1807-.000342 14.361-.000119 21.543-.000119-.001 1.1484-.001 2.2974.00007 3.4468-7.1812-.000052-14.362 0-21.543-.000025-.00088-1.1494-.0008-2.2983.00018-3.4467z" stroke="#fff" stroke-miterlimit="10" stroke-width=".086171"/><path d="m21.578 58.577c7.1807-.000342 14.361-.000119 21.543-.000119-.001 1.1484-.001 2.2974.00007 3.4468-7.1812-.000052-14.362 0-21.543-.000025-.00088-1.1494-.0008-2.2983.00018-3.4467z"/></g></g><path d="m13.071186 54.839984c0-2.473833.08445-3.155528.426061-3.439038.234333-.194478 1.424163-1.753486 2.644067-3.464458 1.219905-1.710975 2.553601-3.359238 2.963771-3.662809l.745762-.551949-.0058-9.643915-.0058-9.643917-2.562099-2.169491-2.562098-2.169492-.0083-4.677966-.0083-4.677966h3.389831 3.38983v2.576271 2.576271h3.118644 3.118644v-2.576271-2.576271h4.20339 4.20339v2.576271 2.576271h3.118644 3.118644v-2.576271-2.576271h3.389831 3.38983v4.684328 4.684328l-2.169491 2.156768-2.169492 2.156767v9.659247c0 9.438993.01285 9.670887.564125 10.169773.31027.280789 1.239129 1.611569 2.064133 2.957285.825003 1.345717 1.899615 2.873877 2.388027 3.395911.868762.928569.892054 1.018251 1.074101 4.135593l.186083 3.186441h-19.002641-19.002642v-3.08544zm30.101695-10.473882v-1.898305h-10.847457-10.847458v1.898305 1.898305h10.847458 10.847457zm0-19.389831v-2.305085h-10.847457-10.847458v2.305085 2.305085h10.847458 10.847457z" fill="#333" stroke="#000" stroke-width=".987802"/></svg>

<svg width="64" height="64" viewBox="0 0 64 64" fill="none" xmlns="http://www.w3.org/2000/svg">
<path d="M14.684 10.694C16.9814 10.6935 19.2792 10.6935 21.5777 10.6939C21.5767 12.4173 21.5767 14.1406 21.5769 15.8642C23.5873 15.8645 25.5983 15.8645 27.6102 15.8642C27.6092 14.1406 27.6092 12.4172 27.6093 10.6937C30.4813 10.6939 33.3537 10.6938 36.2268 10.6937C36.2258 12.4172 36.2248 14.1405 36.2259 15.8642C38.2362 15.8645 40.2473 15.8646 42.2594 15.8644C42.2584 14.1408 42.2574 12.4174 42.2584 10.694C44.5556 10.6936 46.8535 10.6936 49.1524 10.6941C49.1514 13.8671 49.1514 17.0399 49.1526 20.213C47.7164 21.6947 46.2789 23.1745 44.8433 24.6558C44.8493 30.9284 44.8315 37.2008 44.8533 43.4738C47.4694 45.8272 48.2329 49.4697 51.0028 51.667C51.0421 53.8067 51.0405 55.9471 51.0421 58.088C38.3471 58.0877 25.6521 58.0871 12.9571 58.0882C12.9566 55.9522 12.9572 53.8167 12.9848 51.6817C15.6977 49.2723 16.7853 45.6045 19.8488 43.4987C19.861 37.2188 19.8508 30.9387 19.8548 24.6597C18.1307 23.178 16.4062 21.6975 14.6837 20.2151C14.6843 17.0415 14.6836 13.8682 14.6841 10.6948L14.684 10.694Z" fill="white" stroke="black" stroke-width="0.086171" stroke-miterlimit="10"/>
<path d="M14.684 10.694C16.9814 10.6935 19.2792 10.6935 21.5777 10.6939C21.5767 12.4173 21.5767 14.1406 21.5769 15.8642C23.5873 15.8645 25.5983 15.8645 27.6102 15.8642C27.6092 14.1406 27.6092 12.4172 27.6093 10.6937C30.4813 10.6939 33.3537 10.6938 36.2268 10.6937C36.2258 12.4172 36.2248 14.1405 36.2259 15.8642C38.2362 15.8645 40.2473 15.8646 42.2594 15.8644C42.2584 14.1408 42.2574 12.4174 42.2584 10.694C44.5556 10.6936 46.8535 10.6936 49.1524 10.6941C49.1514 13.8671 49.1514 17.0399 49.1526 20.213C47.7164 21.6947 46.2789 23.1745 44.8433 24.6558C44.8493 30.9284 44.8315 37.2008 44.8533 43.4738C47.4694 45.8272 48.2329 49.4697 51.0028 51.667C51.0421 53.8067 51.0405 55.9471 51.0421 58.088C38.3471 58.0877 25.6521 58.0871 12.9571 58.0882C12.9566 55.9522 12.9572 53.8167 12.9848 51.6817C15.6977 49.2723 16.7853 45.6045 19.8488 43.4987C19.861 37.2188 19.8508 30.9387 19.8548 24.6597C18.1307 23.178 16.4062 21.6975 14.6837 20.2151C14.6843 17.0415 14.6836 13.8682 14.6841 10.6948L14.684 10.694Z" fill="black"/>
<path d="M21.578 22.757C28.7586 22.757 35.939 22.7569 43.12 22.757C43.1191 24.193 43.1191 25.629 43.1201 27.0655C35.939 27.0656 28.7581 27.0654 21.5771 27.0656C21.5761 25.6291 21.5761 24.193 21.5772 22.757L21.578 22.757Z" fill="white" stroke="white" stroke-width="0.086171" stroke-miterlimit="10"/>
<path d="M21.578 22.757C28.7586 22.757 35.939 22.7569 43.12 22.757C43.1191 24.193 43.1191 25.629 43.1201 27.0655C35.939 27.0656 28.7581 27.0654 21.5771 27.0656C21.5761 25.6291 21.5761 24.193 21.5772 22.757L21.578 22.757Z" fill="white"/>
<path d="M21.578 42.577C28.7587 42.5767 35.939 42.5769 43.121 42.5769C43.12 43.7253 43.12 44.8743 43.1211 46.0237C35.9399 46.0236 28.7591 46.0237 21.5781 46.0237C21.5772 44.8743 21.5773 43.7254 21.5783 42.577L21.578 42.577Z" fill="white" stroke="white" stroke-width="0.086171" stroke-miterlimit="10"/>
<path d="M21.578 42.577C28.7587 42.5767 35.939 42.5769 43.121 42.5769C43.12 43.7253 43.12 44.8743 43.1211 46.0237C35.9399 46.0236 28.7591 46.0237 21.5781 46.0237C21.5772 44.8743 21.5773 43.7254 21.5783 42.577L21.578 42.577Z" fill="white"/>
<path d="M13.0712 54.84C13.0712 52.3662 13.1556 51.6845 13.4973 51.4009C13.7316 51.2065 14.9214 49.6475 16.1413 47.9365C17.3612 46.2255 18.6949 44.5772 19.1051 44.2737L19.8509 43.7217L19.8451 34.0778L19.8393 24.4339L17.2772 22.2644L14.7151 20.0949L14.7068 15.4169L14.6985 10.739H18.0883H21.4781V13.3153V15.8915H24.5968H27.7154V13.3153V10.739H31.9188H36.1222V13.3153V15.8915H39.2408H42.3595V13.3153V10.739H45.7493H49.1391V15.4233V20.1076L46.9697 22.2644L44.8002 24.4212V34.0804C44.8002 43.5194 44.813 43.7513 45.3643 44.2502C45.6746 44.531 46.6034 45.8618 47.4284 47.2075C48.2534 48.5532 49.328 50.0814 49.8164 50.6034C50.6852 51.532 50.7085 51.6216 50.8905 54.739L51.0766 57.9254H32.074H13.0713V54.84H13.0712ZM43.1729 44.3661V42.4678H32.3254H21.478V44.3661V46.2644H32.3254H43.1729V44.3661ZM43.1729 24.9763V22.6712H32.3254H21.478V24.9763V27.2814H32.3254H43.1729V24.9763Z" fill="#333333" stroke="black" stroke-width="0.987802"/>
</svg>
